portal/assets/img/component/quantity-toggle/anatomy-quantity-toggle-1.svg

<svg width="189" height="97" viewBox="0 0 189 97" fill="none" xmlns="http://www.w3.org/2000/svg">
<path d="M38.3189 53.5V53H37.8189H5C2.51472 53 0.5 55.0147 0.5 57.5V91.5C0.5 93.9853 2.51471 96 5 96H37.8189H38.3189V95.5V53.5Z" fill="#E4E7EC"/>
<path d="M25.819 81.0881L17 81.0881C14.7909 81.0881 13 79.2973 13 77.0881L13 71.9117C13 69.7025 14.7909 67.9117 17 67.9117L25.819 67.9117L25.819 81.0881Z" fill="#E4E7EC"/>
<path fill-rule="evenodd" clip-rule="evenodd" d="M24.2166 74.4999C24.2166 74.6091 24.1743 74.7138 24.0992 74.791C24.0241 74.8682 23.9222 74.9116 23.816 74.9116L15.0029 74.9116C14.8967 74.9116 14.7948 74.8682 14.7197 74.791C14.6446 74.7138 14.6024 74.6091 14.6024 74.4999C14.6024 74.3906 14.6446 74.2859 14.7197 74.2087C14.7948 74.1315 14.8967 74.0881 15.0029 74.0881L23.816 74.0881C23.9222 74.0881 24.0241 74.1315 24.0992 74.2087C24.1743 74.2859 24.2166 74.3907 24.2166 74.4999Z" fill="#98A2B3"/>
<path d="M38.3189 53.5V53H37.8189H5C2.51472 53 0.5 55.0147 0.5 57.5V91.5C0.5 93.9853 2.51471 96 5 96H37.8189H38.3189V95.5V53.5Z" stroke="#98A2B3"/>
<path d="M71.8168 80.7557C70.8396 80.7519 69.9987 80.5114 69.2941 80.0341C68.5934 79.5568 68.0536 78.8655 67.6748 77.9602C67.2998 77.0549 67.1142 75.9659 67.118 74.6932C67.118 73.4242 67.3055 72.3428 67.6805 71.4489C68.0593 70.5549 68.599 69.875 69.2998 69.4091C70.0043 68.9394 70.8434 68.7045 71.8168 68.7045C72.7903 68.7045 73.6274 68.9394 74.3282 69.4091C75.0327 69.8788 75.5744 70.5606 75.9532 71.4545C76.332 72.3447 76.5195 73.4242 76.5157 74.6932C76.5157 75.9697 76.3263 77.0606 75.9475 77.9659C75.5725 78.8712 75.0346 79.5625 74.3339 80.0398C73.6331 80.517 72.7941 80.7557 71.8168 80.7557ZM71.8168 78.7159C72.4835 78.7159 73.0157 78.3807 73.4134 77.7102C73.8112 77.0398 74.0081 76.0341 74.0043 74.6932C74.0043 73.8106 73.9134 73.0758 73.7316 72.4886C73.5536 71.9015 73.2998 71.4602 72.9702 71.1648C72.6445 70.8693 72.26 70.7216 71.8168 70.7216C71.154 70.7216 70.6237 71.053 70.2259 71.7159C69.8282 72.3788 69.6274 73.3712 69.6237 74.6932C69.6237 75.5871 69.7127 76.3333 69.8907 76.9318C70.0725 77.5265 70.3282 77.9735 70.6577 78.2727C70.9873 78.5682 71.3737 78.7159 71.8168 78.7159Z" fill="#344054"/>
<rect x="38.319" y="53" width="67" height="43" stroke="#98A2B3"/>
<path d="M105.819 53H105.319V53.5V95.5V96H105.819H138.638C141.123 96 143.138 93.9853 143.138 91.5V57.5C143.138 55.0147 141.123 53 138.638 53H105.819Z" fill="#5925DC"/>
<path d="M130.638 81.0881L121.819 81.0881C119.61 81.0881 117.819 79.2973 117.819 77.0881L117.819 71.9117C117.819 69.7025 119.61 67.9117 121.819 67.9117L130.638 67.9117L130.638 81.0881Z" fill="#5925DC"/>
<path fill-rule="evenodd" clip-rule="evenodd" d="M124.228 79.4412C124.122 79.4412 124.02 79.3978 123.945 79.3206C123.87 79.2433 123.828 79.1386 123.828 79.0294L123.828 74.9118L119.822 74.9118C119.716 74.9118 119.614 74.8684 119.539 74.7912C119.464 74.7139 119.421 74.6092 119.421 74.5C119.421 74.3908 119.464 74.286 119.539 74.2088C119.614 74.1316 119.716 74.0882 119.822 74.0882L123.828 74.0882L123.828 69.9706C123.828 69.8614 123.87 69.7566 123.945 69.6794C124.02 69.6022 124.122 69.5588 124.228 69.5588C124.335 69.5588 124.437 69.6022 124.512 69.6794C124.587 69.7566 124.629 69.8614 124.629 69.9706L124.629 74.0882L128.635 74.0882C128.741 74.0882 128.843 74.1316 128.918 74.2088C128.993 74.286 129.036 74.3908 129.036 74.5C129.036 74.6092 128.993 74.7139 128.918 74.7912C128.843 74.8684 128.741 74.9118 128.635 74.9118L124.629 74.9118L124.629 79.0294C124.629 79.1386 124.587 79.2433 124.512 79.3206C124.437 79.3978 124.335 79.4412 124.228 79.4412Z" fill="white"/>
<path d="M105.819 53H105.319V53.5V95.5V96H105.819H138.638C141.123 96 143.138 93.9853 143.138 91.5V57.5C143.138 55.0147 141.123 53 138.638 53H105.819Z" stroke="#98A2B3"/>
<circle cx="177" cy="74" r="12" transform="rotate(-90 177 74)" fill="#344054"/>
<path d="M172.443 80V78.2273L176.585 74.392C176.938 74.0511 177.233 73.7443 177.472 73.4716C177.714 73.1989 177.898 72.9318 178.023 72.6705C178.148 72.4053 178.21 72.1193 178.21 71.8125C178.21 71.4716 178.133 71.178 177.977 70.9318C177.822 70.6818 177.61 70.4905 177.341 70.358C177.072 70.2216 176.767 70.1534 176.426 70.1534C176.07 70.1534 175.759 70.2254 175.494 70.3693C175.229 70.5133 175.025 70.7197 174.881 70.9886C174.737 71.2576 174.665 71.5777 174.665 71.9489H172.33C172.33 71.1875 172.502 70.5265 172.847 69.9659C173.191 69.4053 173.674 68.9716 174.295 68.6648C174.917 68.358 175.633 68.2045 176.443 68.2045C177.277 68.2045 178.002 68.3523 178.619 68.6477C179.241 68.9394 179.723 69.3447 180.068 69.8636C180.413 70.3826 180.585 70.9773 180.585 71.6477C180.585 72.0871 180.498 72.5208 180.324 72.9489C180.153 73.3769 179.848 73.8523 179.409 74.375C178.97 74.8939 178.35 75.517 177.551 76.2443L175.852 77.9091V77.9886H180.739V80H172.443Z" fill="white"/>
<path d="M167 74L144 74" stroke="#344054" stroke-dasharray="2 2"/>
<circle cx="72" cy="16" r="12" transform="rotate(-90 72 16)" fill="#344054"/>
<path d="M74.0057 10.3636V22H71.5455V12.6989H71.4773L68.8125 14.3693V12.1875L71.6932 10.3636H74.0057Z" fill="white"/>
<path d="M72 25L72 53" stroke="#344054" stroke-dasharray="2 2"/>
</svg>

<svg width="189" height="97" viewBox="0 0 189 97" fill="none" xmlns="http://www.w3.org/2000/svg"><path d="M38.319 53.5V53H5a4.5 4.5 0 0 0-4.5 4.5v34A4.5 4.5 0 0 0 5 96h33.319V53.5Z" fill="#E4E7EC"/><path d="M25.819 81.088H17a4 4 0 0 1-4-4v-5.176a4 4 0 0 1 4-4h8.819v13.176Z" fill="#E4E7EC"/><path fill-rule="evenodd" clip-rule="evenodd" d="M24.217 74.5c0 .11-.043.214-.118.291a.395.395 0 0 1-.283.12h-8.813a.395.395 0 0 1-.283-.12.418.418 0 0 1 0-.582.395.395 0 0 1 .283-.12h8.813c.106 0 .208.043.283.12a.418.418 0 0 1 .118.29Z" fill="#98A2B3"/><path d="M38.319 53.5V53H5a4.5 4.5 0 0 0-4.5 4.5v34A4.5 4.5 0 0 0 5 96h33.319V53.5Z" stroke="#98A2B3"/><path d="M71.817 80.756c-.977-.004-1.818-.245-2.523-.722-.7-.477-1.24-1.169-1.62-2.074-.374-.905-.56-1.994-.556-3.267 0-1.269.188-2.35.563-3.244.378-.894.918-1.574 1.619-2.04.704-.47 1.543-.705 2.517-.705.973 0 1.81.235 2.511.705.705.47 1.246 1.152 1.625 2.045.379.89.566 1.97.563 3.24 0 1.276-.19 2.367-.569 3.272-.374.905-.912 1.597-1.613 2.074-.7.477-1.54.716-2.517.716Zm0-2.04c.667 0 1.199-.335 1.596-1.006.398-.67.595-1.676.591-3.017 0-.882-.09-1.617-.272-2.204-.178-.588-.432-1.029-.762-1.324a1.66 1.66 0 0 0-1.153-.443c-.663 0-1.193.331-1.591.994-.398.663-.599 1.655-.602 2.977 0 .894.089 1.64.267 2.239.181.594.437 1.041.767 1.34.33.296.716.444 1.159.444Z" fill="#344054"/><path stroke="#98A2B3" d="M38.319 53h67v43h-67z"/><path d="M105.819 53h-.5v43h33.319a4.5 4.5 0 0 0 4.5-4.5v-34a4.5 4.5 0 0 0-4.5-4.5h-32.819Z" fill="#5925DC"/><path d="M130.638 81.088h-8.819a4 4 0 0 1-4-4v-5.176a4 4 0 0 1 4-4h8.819v13.176Z" fill="#5925DC"/><path fill-rule="evenodd" clip-rule="evenodd" d="M124.228 79.441a.395.395 0 0 1-.283-.12.418.418 0 0 1-.117-.292v-4.117h-4.006a.395.395 0 0 1-.283-.12.42.42 0 0 1 0-.583.395.395 0 0 1 .283-.12h4.006V69.97a.42.42 0 0 1 .117-.292.395.395 0 0 1 .567 0 .418.418 0 0 1 .117.292v4.117h4.006a.4.4 0 0 1 .283.12.419.419 0 0 1 0 .583.395.395 0 0 1-.283.12h-4.006v4.118a.42.42 0 0 1-.117.292.395.395 0 0 1-.284.12Z" fill="#fff"/><path d="M105.819 53h-.5v43h33.319a4.5 4.5 0 0 0 4.5-4.5v-34a4.5 4.5 0 0 0-4.5-4.5h-32.819Z" stroke="#98A2B3"/><circle cx="177" cy="74" r="12" transform="rotate(-90 177 74)" fill="#344054"/><path d="M172.443 80v-1.773l4.142-3.835c.353-.34.648-.648.887-.92.242-.273.426-.54.551-.801.125-.266.187-.552.187-.859 0-.34-.077-.634-.233-.88a1.526 1.526 0 0 0-.636-.574 1.995 1.995 0 0 0-.915-.205c-.356 0-.667.072-.932.216-.265.144-.469.35-.613.62-.144.269-.216.589-.216.96h-2.335c0-.761.172-1.422.517-1.983.344-.56.827-.994 1.448-1.301.622-.307 1.338-.46 2.148-.46.834 0 1.559.147 2.176.443.622.291 1.104.697 1.449 1.216s.517 1.113.517 1.784c0 .44-.087.873-.261 1.3-.171.429-.476.904-.915 1.427-.439.519-1.059 1.142-1.858 1.87l-1.699 1.664v.08h4.887V80h-8.296Z" fill="#fff"/><path d="M167 74h-23" stroke="#344054" stroke-dasharray="2 2"/><circle cx="72" cy="16" r="12" transform="rotate(-90 72 16)" fill="#344054"/><path d="M74.006 10.364V22h-2.46v-9.301h-.069l-2.665 1.67v-2.181l2.881-1.824h2.313Z" fill="#fff"/><path d="M72 25v28" stroke="#344054" stroke-dasharray="2 2"/></svg>
